src/pos-icons/arrow-bottom-left-thick.svg

<svg height="24" viewBox="0 0 24 24" width="24" xmlns="http://www.w3.org/2000/svg"><path d="m15.5 5.69 2.81 2.81-6.37 6.39h4.95v3.42h-11.2v-11.2h3.43v4.95z"/></svg>

<?xml version="1.0" encoding="UTF-8"?><!DOCTYPE svg PUBLIC "-//W3C//DTD SVG 1.1//EN" "http://www.w3.org/Graphics/SVG/1.1/DTD/svg11.dtd"><svg xmlns="http://www.w3.org/2000/svg" xmlns:xlink="http://www.w3.org/1999/xlink" version="1.1" id="mdi-arrow-bottom-left-thick" width="24" height="24" viewBox="0 0 24 24"><path d="M15.5,5.69L18.31,8.5L11.94,14.89H16.89V18.31H5.69V7.11H9.12V12.06L15.5,5.69Z" /></svg>
